X:1
T: Doldrum
N:
C:
S:Play 3 times
A:
O:
R:
M:6/8
K:C
I:speed 150
%W: A1
% voice 1 (1 lines, 41 notes)
K:C
M:6/8
L:1/16
G2 |c4 c2 c2 B2 c2 d4 d2 d2 e2 f2 g2 e2 c2 B2 A2 G2 c4 c2 c4 G2 |c4 c2 c2 B2 c2 d4 d2 d2 e2 f2 g2 e2 c2 B2 A2 G2 c4 c2 c4 G2 |
%W: A2
% voice 1 (1 lines, 41 notes)
c4 c2 c2 B2 c2 d4 d2 d2 e2 f2 g2 e2 c2 B2 A2 G2 c4 c2 c4 G2 |c4 c2 c2 B2 c2 d4 d2 d2 e2 f2 g2 e2 c2 B2 A2 G2 c4 c2 c4 e f |
%W: B1
% voice 1 (1 lines, 39 notes)
g4 g2 e2 c2 e2 d4 d2 B2 G2 B2 g4 g2 e2 c2 e2 d6d4 e f |g4 g2 e2 c2 e2 d4 d2 B2 G2 B2 g2 e2 c2 B2 A2 G2 c6c4 e f |
%W: B2
% voice 1 (1 lines, 37 notes)
g4 g2 e2 c2 e2 d4 d2 B2 G2 B2 g4 g2 e2 c2 e2 d6d4 e f |g4 g2 e2 c2 e2 d4 d2 B2 G2 B2 g2 e2 c2 B2 A2 G2 c6c4 ||

